images/smooth-elephant.svg

<svg width="731" height="590" viewBox="0 0 731 590" fill="none" xmlns="http://www.w3.org/2000/svg">
<path d="M375.702 0.873209C357.388 -0.351182 347.023 -0.229365 328.702 0.873209C323.619 1.17908 320.771 1.39749 315.702 1.87321C303.934 2.97747 297.345 3.83969 285.702 5.87321C274.685 7.79722 268.538 9.11221 257.702 11.8732C245.849 14.8931 239.258 16.8665 227.701 20.8732C216.601 24.7216 210.421 27.0662 199.701 31.8732C190.14 36.1608 184.874 38.806 175.701 43.8732C167.729 48.2777 163.349 50.9259 155.701 55.8732C149.335 59.9917 145.845 62.4284 139.701 66.8732C132.93 71.7723 128.988 74.366 122.702 79.8732C116.47 85.3321 95.897 106.299 81.474 125.5C68.8727 142.276 57.3713 162.054 52.7015 170.873C48.451 178.901 46.3621 183.56 42.7015 191.873C38.4638 201.497 36.2053 206.959 32.7015 216.873C29.1616 226.889 27.5258 232.632 24.7015 242.873C21.6041 254.104 20.0518 260.462 17.7015 271.873C14.7484 286.21 11.7015 308.873 11.7015 308.873C11.7015 308.873 8.86955 333.218 7.70151 348.873C6.50879 364.859 6.35216 373.856 5.7015 389.873C2.91172 458.55 -5.02539 537 4.7015 565.873C6.66993 571.716 8.8019 574.977 13.474 579C18.418 583.257 23.9983 585.201 28.7015 585.873C57.3099 589.96 74.348 591.461 102.701 585.873C106.234 585.177 108.46 585.441 111.701 583.873C115.438 582.065 117.267 580.236 119.701 576.873C121.957 573.758 122.347 571.473 123.702 567.873C128.972 553.864 125.887 544.574 128.701 529.873L128.905 528.81C130.436 520.806 131.358 515.985 133.701 507.873C135.415 501.941 136.423 498.612 138.701 492.873C141.086 486.865 142.622 483.557 145.701 477.873C148.541 472.632 150.226 469.717 153.701 464.873C157.258 459.917 159.447 457.245 163.701 452.873C167.365 449.108 169.62 447.181 173.701 443.873L173.808 443.787C177.868 440.496 180.2 438.606 184.701 435.873C189.18 433.154 191.889 431.945 196.701 429.873C202.034 427.578 205.099 426.395 210.701 424.873C217.207 423.107 220.99 422.504 227.701 421.873C235.478 421.142 239.918 421.225 247.701 421.873C253.205 422.332 256.314 422.659 261.702 423.873C266.883 425.041 269.742 425.97 274.702 427.873C279.107 429.564 281.57 430.594 285.702 432.873C291.108 435.856 294 437.871 298.702 441.873C302.31 444.945 304.177 446.998 307.242 450.369L307.702 450.873C311.437 454.978 313.542 457.31 316.702 461.873C321.38 468.63 323.282 473.007 326.504 480.418L326.702 480.873C330.001 488.462 331.482 492.901 333.702 500.873C336.474 510.834 337.036 516.669 338.702 526.873C341.425 543.558 337.715 554.063 343.702 569.873C344.755 572.655 345.045 574.403 346.702 576.873C349.014 580.321 350.968 582.058 354.702 583.873C358.283 585.615 360.778 585.193 364.702 585.873C390.866 590.412 406.227 587.943 432.702 585.873C437.002 585.537 439.509 585.889 443.702 584.873C446.102 584.292 447.52 584.032 449.702 582.873C452.395 581.442 453.906 580.339 455.702 577.873C457.665 575.176 457.952 573.125 458.702 569.873C466.975 534 455.937 510.653 458.702 472.873C459.589 460.743 459.794 453.886 461.702 441.873C462.951 434.007 463.69 429.58 465.702 421.873L465.823 421.408C467.401 415.36 468.33 411.801 470.702 405.873C473.297 399.387 474.637 395.555 478.702 389.873C481.438 386.049 486.702 380.873 486.702 380.873C486.702 380.873 491.306 376.803 494.702 374.873C498.358 372.795 500.58 371.712 504.702 370.873C509.294 369.939 512.177 369.653 516.701 370.873C518.732 371.421 519.829 371.916 521.701 372.873C525.179 374.65 526.812 376.246 529.701 378.873C535.481 384.127 541.701 394.873 541.701 394.873C541.701 394.873 548.912 408.339 553.701 416.873C556.783 422.365 558.297 425.576 561.701 430.873C564.279 434.883 565.703 437.168 568.701 440.873C573.218 446.454 576.347 449.09 581.701 453.873C585.841 457.571 588.095 459.777 592.701 462.873C597.487 466.089 600.457 467.476 605.701 469.873C610.649 472.134 613.49 473.317 618.701 474.873C624.059 476.473 627.159 477.136 632.701 477.873C641.992 479.11 647.413 479.124 656.701 477.873C663.461 476.963 667.285 476.186 673.701 473.873C680.273 471.504 683.773 469.569 689.701 465.873C694.209 463.063 696.708 461.375 700.701 457.873C705.482 453.682 707.802 450.894 711.701 445.873C715.156 441.425 717.006 438.819 719.701 433.873C722.548 428.65 723.827 425.518 725.701 419.873C727.971 413.039 729.082 409.047 729.701 401.873L729.715 401.712C730.11 397.142 730.342 394.461 729.701 389.873C729.426 387.901 729.253 386.787 728.701 384.873C727.878 382.015 727.26 380.406 725.701 377.873C724.391 375.743 723.529 374.58 721.701 372.873C719.643 370.951 718.34 369.857 715.701 368.873C711.676 367.372 708.729 367.38 704.701 368.873C702.566 369.665 701.386 370.341 699.701 371.873C697.633 373.754 696.908 375.301 695.727 377.818L695.701 377.873C693.357 382.874 695.066 386.521 693.701 391.873L693.631 392.149C692.76 395.571 692.24 397.609 690.701 400.873C689.131 404.206 688.109 406.084 685.701 408.873C683.349 411.599 681.77 412.99 678.701 414.873C674.805 417.264 672.22 418.184 667.701 418.873C664.227 419.403 662.167 419.462 658.701 418.873C657.114 418.604 656.238 418.355 654.701 417.873C650.535 416.567 648.09 415.626 644.701 412.873C641.907 410.603 640.787 408.808 638.701 405.873C635.229 400.988 633.958 397.703 631.829 392.203L631.701 391.873C628.795 384.365 628.195 379.784 626.701 371.873C624.662 361.067 624.615 354.832 623.701 343.873C622.37 327.898 621.654 318.904 621.701 302.873C621.733 292.322 622.448 286.422 622.701 275.873C623.171 256.353 624.173 245.344 622.701 225.873C621.931 215.681 621.346 209.961 619.701 199.873C618.161 190.424 617.128 185.135 614.701 175.873C611.572 163.927 609.463 157.268 604.701 145.873C601.872 139.103 600.12 135.365 596.701 128.873C592.457 120.814 589.814 116.412 584.701 108.873C580.318 102.409 577.719 98.8591 572.701 92.8732C568.263 87.5781 565.587 84.7587 560.701 79.8732C555.816 74.9878 552.931 72.3889 547.701 67.8732C543.501 64.2455 541.077 62.2884 536.701 58.8732C530.975 54.4035 527.724 51.9346 521.701 47.8732C514.871 43.2673 510.923 40.8384 503.702 36.8732C494.974 32.0809 489.816 29.8803 480.702 25.8732C471.076 21.6413 465.677 19.1984 455.702 15.8732C445.847 12.5885 440.09 11.2637 430.074 8.95881L429.702 8.87321C419.625 6.55443 413.926 5.41473 403.702 3.87321C392.827 2.23365 386.674 1.60681 375.702 0.873209Z" fill="#1B1B1B"/>
</svg>

<svg fill="none" height="590" viewBox="0 0 731 590" width="731" xmlns="http://www.w3.org/2000/svg"><path d="m375.702.873209c-18.314-1.224391-28.679-1.102574-47 0-5.083.305871-7.931.524281-13 1.000001-11.768 1.10426-18.357 1.96648-30 4-11.017 1.92401-17.164 3.239-28 5.99999-11.853 3.0199-18.444 4.9933-30.001 9-11.1 3.8484-17.28 6.193-28 11-9.561 4.2876-14.827 6.9328-24 12-7.972 4.4045-12.352 7.0527-20 12-6.366 4.1185-9.856 6.5552-16 11-6.771 4.8991-10.713 7.4928-16.999 13-6.232 5.4589-26.805 26.4258-41.228 45.6268-12.6013 16.776-24.1027 36.554-28.7725 45.373-4.2505 8.028-6.3394 12.687-10 21-4.2377 9.624-6.4962 15.086-10 25-3.5399 10.016-5.1757 15.759-8 26-3.0974 11.231-4.6497 17.589-7 29-2.9531 14.337-6 37-6 37s-2.83195 24.345-3.99999 40c-1.19272 15.986-1.34935 24.983-2.00001 41-2.78978 68.677-10.72689 147.127-1 176 1.96843 5.843 4.1004 9.104 8.7725 13.127 4.944 4.257 10.5243 6.201 15.2275 6.873 28.6084 4.087 45.6465 5.588 73.9995 0 3.533-.696 5.759-.432 9-2 3.737-1.808 5.566-3.637 8-7 2.256-3.115 2.646-5.4 4.001-9 5.27-14.009 2.185-23.299 4.999-38l.204-1.063c1.531-8.004 2.453-12.825 4.796-20.937 1.714-5.932 2.722-9.261 5-15 2.385-6.008 3.921-9.316 7-15 2.84-5.241 4.525-8.156 8-13 3.557-4.956 5.746-7.628 10-12 3.664-3.765 5.919-5.692 10-9l.107-.086c4.06-3.291 6.392-5.181 10.893-7.914 4.479-2.719 7.188-3.928 12-6 5.333-2.295 8.398-3.478 14-5 6.506-1.766 10.289-2.369 17-3 7.777-.731 12.217-.648 20 0 5.504.459 8.613.786 14.001 2 5.181 1.168 8.04 2.097 13 4 4.405 1.691 6.868 2.721 11 5 5.406 2.983 8.298 4.998 13 9 3.608 3.072 5.475 5.125 8.54 8.496l.46.504c3.735 4.105 5.84 6.437 9 11 4.678 6.757 6.58 11.134 9.802 18.545l.198.455c3.299 7.589 4.78 12.028 7 20 2.772 9.961 3.334 15.796 5 26 2.723 16.685-.987 27.19 5 43 1.053 2.782 1.343 4.53 3 7 2.312 3.448 4.266 5.185 8 7 3.581 1.742 6.076 1.32 10 2 26.164 4.539 41.525 2.07 68 0 4.3-.336 6.807.016 11-1 2.4-.581 3.818-.841 6-2 2.693-1.431 4.204-2.534 6-5 1.963-2.697 2.25-4.748 3-8 8.273-35.873-2.765-59.22 0-97 .887-12.13 1.092-18.987 3-31 1.249-7.866 1.988-12.293 4-20l.121-.465c1.578-6.048 2.507-9.607 4.879-15.535 2.595-6.486 3.935-10.318 8-16 2.736-3.824 8-9 8-9s4.604-4.07 8-6c3.656-2.078 5.878-3.161 10-4 4.592-.934 7.475-1.22 11.999 0 2.031.548 3.128 1.043 5 2 3.478 1.777 5.111 3.373 8 6 5.78 5.254 12 16 12 16s7.211 13.466 12 22c3.082 5.492 4.596 8.703 8 14 2.578 4.01 4.002 6.295 7 10 4.517 5.581 7.646 8.217 13 13 4.14 3.698 6.394 5.904 11 9 4.786 3.216 7.756 4.603 13 7 4.948 2.261 7.789 3.444 13 5 5.358 1.6 8.458 2.263 14 3 9.291 1.237 14.712 1.251 24 0 6.76-.91 10.584-1.687 17-4 6.572-2.369 10.072-4.304 16-8 4.508-2.81 7.007-4.498 11-8 4.781-4.191 7.101-6.979 11-12 3.455-4.448 5.305-7.054 8-12 2.847-5.223 4.126-8.355 6-14 2.27-6.834 3.381-10.826 4-18l.014-.161c.395-4.57.627-7.251-.014-11.839-.275-1.972-.448-3.086-1-5-.823-2.858-1.441-4.467-3-7-1.31-2.13-2.172-3.293-4-5-2.058-1.922-3.361-3.016-6-4-4.025-1.501-6.972-1.493-11 0-2.135.792-3.315 1.468-5 3-2.068 1.881-2.793 3.428-3.974 5.945l-.026.055c-2.344 5.001-.635 8.648-2 14l-.07.276c-.871 3.422-1.391 5.46-2.93 8.724-1.57 3.333-2.592 5.211-5 8-2.352 2.726-3.931 4.117-7 6-3.896 2.391-6.481 3.311-11 4-3.474.53-5.534.589-9 0-1.587-.269-2.463-.518-4-1-4.166-1.306-6.611-2.247-10-5-2.794-2.27-3.914-4.065-6-7-3.472-4.885-4.743-8.17-6.872-13.67l-.128-.33c-2.906-7.508-3.506-12.089-5-20-2.039-10.806-2.086-17.041-3-28-1.331-15.975-2.047-24.969-2-41 .032-10.551.747-16.451 1-27 .47-19.52 1.472-30.529 0-50-.77-10.192-1.355-15.912-3-26-1.54-9.449-2.573-14.738-5-24-3.129-11.946-5.238-18.605-10-30-2.829-6.77-4.581-10.508-8-17-4.244-8.059-6.887-12.461-12-20-4.383-6.464-6.982-10.0139-12-15.9998-4.438-5.2951-7.114-8.1145-12-13-4.885-4.8854-7.77-7.4843-13-12-4.2-3.6277-6.624-5.5848-11-9-5.726-4.4697-8.977-6.9386-15-11-6.83-4.6059-10.778-7.0348-17.999-11-8.728-4.7923-13.886-6.9929-23-11-9.626-4.2319-15.025-6.6748-25-10-9.855-3.2847-15.612-4.6095-25.628-6.91439l-.372-.0856c-10.077-2.31878-15.776-3.45848-26-5-10.875-1.63956-17.028-2.2664-28-3.000001z" fill="#1b1b1b"/></svg>
